!!!OTL: "Das Schlaraffenland" IN POLEN STEHT EIN HAUS
!!!ARE: Europa, Mitteleuropa, Deutschland, Nord - Deutschland
!!!SCT: Z1321
!!!YEM: Copyright 1995, estate of Helmut Schaffrath.
**kern
*ICvox
*Ivox
*M4/4
*k[b-e-]
*B-:
{2ff
=1
4bb-
4ff
4dd
4ff
=2
2bb-}
{2ddd
=3
4ccc
4bb-
4aa
4gg
=4
2ff}
{2gg
=5
4ff
4ee-
4dd
4ee-
=6
4.ff
8gg
4ff}
{4gg
=7
4ff
4ee-
4dd
4ee-
=8
4.ff
8gg
4ff}
{4ff
=9
4bb-
4bb-
4ccc
4ccc
=10
4.ddd
8eee-
4fff}
{4eee-
=11
4ddd
4ddd
4ccc
4ccc
=12
2bb-}
==
!!!AGN: Zech -, Schalks - Lied
!!!ONB: ESAC (Essen Associative Code) Database: ZUCCAL
!!!AMT: simple quadruple
!!!AIN: vox
!!!EED: Helmut Schaffrath
!!!EEV: 1.0
*-
